X:383
T: Drop of Dram
N: O'Farrell's Pocket Companion v.4 (Sky ed. p.165)
N: "Irish"
% Melody of Thomas Moore's "Farewell But Whenever"
M: C
L: 1/8
Q: 100
R: air
K: G
D| G2B>G c<AGF| GBd>d d2 B>d| dcAc cBGB| cAGF G3 :|
d| d>cBc dgfe| d>cBc d2 g>g| g2eg g2 fd| fed^c d=cBA|
G2BG cAGF| GB d2d2 B>d| dcAc cBGB| cAGF G3 ||
